assets/matternet/original.svg

<svg viewBox="0 0 24 24" xmlns="http://www.w3.org/2000/svg" fill="#261C29"><path d="m19.229 4.18-4.066 2.327v-4.681l-3.17-1.826-3.166 1.83v4.677l-4.047-2.337-3.174 1.83v3.664l4.051 2.336-4.054 2.343v3.657l3.165 1.831 4.044-2.338v4.681l3.171 1.826 3.174-1.831v-4.676l4.052 2.327 3.173-1.829v-3.646l-4.043-2.345 4.058-2.336v-3.664l-3.164-1.82zm.373 3.429v-1.894l1.639.942v1.905l-1.636-.953zm1.638 9.286-6.075-3.504 1.65-.945 4.424 2.554v1.896zm-6.827-3.95-1.65-.945 6.452-3.726 1.641.944-6.446 3.727zm-11.279-3.726 1.641-.944 6.453 3.725-1.639.945zm5.69 4.17-6.075 3.508v-1.897l4.435-2.555 1.641.945v-.001zm-6.075-4.825v-1.904l1.64-.945v1.898zm9.627 0v-7.014l1.641.937v5.123l-1.641.953zm-2.402-.96v-5.111l1.64-.944v7.004zm8.866-1.889v1.898l-6.456 3.734v-1.905zm-7.228 3.724v1.897l-6.459-3.727v-1.894l6.46 3.721zm-2.403 6.513-4.435 2.555-1.64-.944 6.074-3.508v1.897zm.765-2.343 1.64-.945v7.453l-1.64.959zm3.656 8.115-1.639.954-1.64-.951 1.64-.946 1.639.946zm.394-.657-1.648-.95v-7.441l1.648.944zm6.831-3.504-1.641.944-4.425-2.555v-1.897l6.075 3.508z"/></svg>

<svg xmlns="http://www.w3.org/2000/svg" fill="#261c29" viewBox="0 0 24 24"><path d="m19.229 4.18-4.066 2.327V1.826L11.993 0 8.827 1.83v4.677L4.78 4.17 1.606 6v3.664L5.657 12l-4.054 2.343V18l3.165 1.831 4.044-2.338v4.681L11.983 24l3.174-1.831v-4.676l4.052 2.327 3.173-1.829v-3.646L18.339 12l4.058-2.336V6l-3.164-1.82zm.373 3.429V5.715l1.639.942v1.905l-1.636-.953zm1.638 9.286-6.075-3.504 1.65-.945L21.239 15v1.896zm-6.827-3.95L12.763 12l6.452-3.726 1.641.944-6.446 3.727zM3.134 9.219l1.641-.944L11.228 12l-1.639.945zm5.69 4.17-6.075 3.508V15l4.435-2.555 1.641.945v-.001zM2.749 8.564V6.66l1.64-.945v1.898zm9.627 0V1.55l1.641.937V7.61zm-2.402-.96V2.493l1.64-.944v7.004zm8.866-1.889v1.898l-6.456 3.734V9.442zm-7.228 3.724v1.897L5.153 7.609V5.715l6.46 3.721zm-2.403 6.513-4.435 2.555-1.64-.944 6.074-3.508zm.765-2.343 1.64-.945v7.453l-1.64.959zm3.656 8.115-1.639.954-1.64-.951 1.64-.946 1.639.946zm.394-.657-1.648-.95v-7.441l1.648.944zm6.831-3.504-1.641.944-4.425-2.555v-1.897l6.075 3.508z"/></svg>
